X: 1
T: The Goofy Newfie
C: Jacob Howley
B: Other
M: 4/4
L: 1/8
Z: Contributed 20050131200508 by Jacob howleyj@gmx.de
K: A
|: Afe(c c)BAB | c=cA(E E)CA,C | B,FFE EFCE | FAf=c BAFE |
| Afe(c c)BAB | c=cA(E E)CA,C | B,FFE EFCE | (3DEF =cB A2EF :|
|: A2cB AFEF | A2ce fece | fbaf eAce | ^dea=g fecB |
|1 A2ce BAFE | ABce feae | faga fecA | (3EF=G AB A2EF :|
|2 cee2 fece | faa2 bafa | ecAE FB,B,A, | (3B,CE FGA2 ||
